app/dist/common/images/technopro.svg

<svg height="18" viewBox="0 0 18 18" width="18" xmlns="http://www.w3.org/2000/svg"><path d="m0 0h18v18h-18z" fill="#f0f3fa"/><path d="m12.57 6h-2.57v7h1v-2h1.14c1.52.06 2.86-.9 2.86-2.4 0-1.55-1-2.63-2.43-2.6zm1.43 2.34c0 1.36-1 1.66-1.53 1.66h-1.47v-3h1.47c.76.04 1.55.49 1.53 1.34z" fill="#00809e"/><path d="m10 8a9.87 9.87 0 0 1 6 2c-2.05-2.26-4.13-3.03-6-3-2.64.04-4.86 1.68-6 3 2.22-1.94 5.23-2 6-2z" fill="#f98424"/><path d="m10 6v1h-3v6h-1v-6h-3v-1z" fill="#00809e"/></svg>

<!-- by TradingView --><svg width="18" height="18" viewBox="0 0 18 18" xmlns="http://www.w3.org/2000/svg"><path fill="#F0F3FA" d="M0 0h18v18H0z"/><path d="M12.57 6H10v7h1v-2h1.14c1.52.06 2.86-.9 2.86-2.4 0-1.55-1-2.63-2.43-2.6ZM14 8.34C14 9.7 13 10 12.47 10H11V7h1.47c.76.04 1.55.49 1.53 1.34Z" fill="#00809E"/><path d="M10 8a9.87 9.87 0 0 1 6 2c-2.05-2.26-4.13-3.03-6-3-2.64.04-4.86 1.68-6 3 2.22-1.94 5.23-2 6-2Z" fill="#F98424"/><path d="M10 6v1H7v6H6V7H3V6h7Z" fill="#00809E"/></svg>
